X:14
T:WMNSWRK3- The Black Eagle
S:SMM #228
Q:1/4=120
L:1/8
M:C
K:Gm
B|(F<D) (F>G)F3B|(F<D) (B,D) F2(F>E)|D2G>AG2B>c|\
Bc/d/ c>BG3B|(F<D) (F>G)F3B|FD B,D F2 GA|\
B2cd f3g|(f<d) "tr"c>B {A}G3||\
F|B>c d>e f3g|(f<d) "tr"c>B f2(fe)|\
d2g>a g3a|(ba)(g^f)g3f|(gf) (ga) b3(a/g/)|\
(f<d) cB c3B|(cd) (fg)f3g|(fd) (cB)G3||]

